X: 11019
T: Drunraney Lass, The
R: jig
M: 6/8
K: Adorian
|:A3 ABA|GEE G2 B|A3 ABd|edB edB|
A3 ABA|GEE G2 B|dBA GAB|ded dBA:|
|:def g2 g|agf g2 e|def g2 d|edB dBA|
def g2 g|agf g2 a|bag agf|gfe fdB:|

